components/ui-node-icon/src/winFunc/winFunc.large.svg

<svg width="32" height="32" viewBox="0 0 32 32" fill="none" xmlns="http://www.w3.org/2000/svg">
  <path fill-rule="evenodd" clip-rule="evenodd" d="M20 6C20 4.89543 20.8954 4 22 4H28C29.1046 4 30 4.89543 30 6V9C30 10.1046 29.1046 11 28 11H22C20.8954 11 20 10.1046 20 9V6ZM20 14C20 12.8954 20.8954 12 22 12H28C29.1046 12 30 12.8954 30 14V17C30 18.1046 29.1046 19 28 19H22C20.8954 19 20 18.1046 20 17V14ZM22 20C20.8954 20 20 20.8954 20 22V25C20 26.1046 20.8954 27 22 27H28C29.1046 27 30 26.1046 30 25V22C30 20.8954 29.1046 20 28 20H22Z" fill="var(--tbl--colors--icons--clean--secondary)"/>
  <path fill-rule="evenodd" clip-rule="evenodd" d="M4 7C2.89543 7 2 7.89543 2 9V24C2 25.1046 2.89543 26 4 26H10C11.1046 26 12 25.1046 12 24V9C12 7.89543 11.1046 7 10 7H4ZM20 14C20 12.8954 20.8954 12 22 12H28C29.1046 12 30 12.8954 30 14V17C30 18.1046 29.1046 19 28 19H22C20.8954 19 20 18.1046 20 17V14ZM16.2071 12.7929L18.2071 14.7929C18.3946 14.9804 18.5 15.2348 18.5 15.5C18.5 15.7652 18.3946 16.0196 18.2071 16.2071L16.2071 18.2071C15.9211 18.4931 15.491 18.5787 15.1173 18.4239C14.7436 18.2691 14.5 17.9045 14.5 17.5V13.5C14.5 13.0955 14.7436 12.7309 15.1173 12.5761C15.491 12.4213 15.9211 12.5069 16.2071 12.7929Z" fill="var(--tbl--colors--icons--clean--primary)"/>
</svg>

<svg xmlns="http://www.w3.org/2000/svg" width="32" height="32" fill="none" viewBox="0 0 32 32">
  <path fill="var(--tbl--colors--icons--clean--secondary)" fill-rule="evenodd" d="M20 6a2 2 0 0 1 2-2h6a2 2 0 0 1 2 2v3a2 2 0 0 1-2 2h-6a2 2 0 0 1-2-2V6Zm0 8a2 2 0 0 1 2-2h6a2 2 0 0 1 2 2v3a2 2 0 0 1-2 2h-6a2 2 0 0 1-2-2v-3Zm2 6a2 2 0 0 0-2 2v3a2 2 0 0 0 2 2h6a2 2 0 0 0 2-2v-3a2 2 0 0 0-2-2h-6Z" clip-rule="evenodd"/>
  <path fill="var(--tbl--colors--icons--clean--primary)" fill-rule="evenodd" d="M4 7a2 2 0 0 0-2 2v15a2 2 0 0 0 2 2h6a2 2 0 0 0 2-2V9a2 2 0 0 0-2-2H4Zm16 7a2 2 0 0 1 2-2h6a2 2 0 0 1 2 2v3a2 2 0 0 1-2 2h-6a2 2 0 0 1-2-2v-3Zm-3.793-1.207 2 2a1 1 0 0 1 0 1.414l-2 2A1 1 0 0 1 14.5 17.5v-4a1 1 0 0 1 1.707-.707Z" clip-rule="evenodd"/>
</svg>
